libs/icons/src/svg/download.svg

<svg width="16" height="16" viewBox="0 0 16 16" fill="none" xmlns="http://www.w3.org/2000/svg">
<g clip-path="url(#clip0_3_3775)">
<path d="M7.73332 11.9333C7.66666 11.9333 7.59999 11.8667 7.53332 11.8L3.53332 7.8C3.26666 7.53334 3.26666 7.13334 3.53332 6.86667C3.79999 6.60001 4.19999 6.60001 4.46666 6.86667L7.33332 9.73334V1.33334C7.33332 0.933338 7.59999 0.666672 7.99999 0.666672C8.39999 0.666672 8.66666 0.933338 8.66666 1.33334V9.73334L11.5333 6.86667C11.8 6.60001 12.2 6.60001 12.4667 6.86667C12.7333 7.13334 12.7333 7.53334 12.4667 7.8L8.46666 11.8C8.43332 11.8333 8.39999 11.85 8.36666 11.8667C8.33332 11.8833 8.29999 11.9 8.26666 11.9333C8.19999 12 8.06666 12 7.99999 12C7.93332 12 7.79999 12 7.73332 11.9333Z" fill="#202327"/>
<path d="M14 11.3333C14 10.9333 14.2667 10.6667 14.6667 10.6667C15.0667 10.6667 15.3333 10.9333 15.3333 11.3333V15.3333C15.3333 15.7333 15.0667 16 14.6667 16H1.33332C0.933323 16 0.666656 15.7333 0.666656 15.3333V11.3333C0.666656 10.9333 0.933323 10.6667 1.33332 10.6667C1.73332 10.6667 1.99999 10.9333 1.99999 11.3333V14.6667H14V11.3333Z" fill="#202327"/>
</g>
<defs>
<clipPath id="clip0_3_3775">
<rect width="16" height="16" fill="white"/>
</clipPath>
</defs>
</svg>

<svg xmlns="http://www.w3.org/2000/svg" viewBox="0 0 16 16" class="sageicon"><path d="M7.733 11.933c-.066 0-.133-.066-.2-.133l-4-4a.644.644 0 0 1 0-.933.644.644 0 0 1 .934 0l2.866 2.866v-8.4c0-.4.267-.666.667-.666s.667.266.667.666v8.4l2.866-2.866a.645.645 0 0 1 .934 0 .645.645 0 0 1 0 .933l-4 4c-.034.033-.067.05-.1.067a.348.348 0 0 0-.1.066C8.2 12 8.067 12 8 12s-.2 0-.267-.067Z"/><path d="M14 11.333c0-.4.267-.666.667-.666s.666.266.666.666v4c0 .4-.266.667-.666.667H1.333c-.4 0-.666-.267-.666-.667v-4c0-.4.266-.666.666-.666s.667.266.667.666v3.334h12v-3.334Z"/></svg>
